X:1
T:Title
L:1/8
M:4/4
K:Ab
V:1 treble nm="Grand Piano"
V:1
 z4 z2[Q:1/4=100] C2 | c3 B AGFE | D6 B,2 | B3 A GFED | C6 C2 | D>C C2- CC=D=E | G>F F4 F2 | %7
 F>F F2- FFG=A | c>B B4 A2 | G3 F =E2 F2 | G6 C2 | c3 B AGFE | D6 B,2 | B3 A GFED | C6 C2 | %15
 D>C C2- CC=D=E | G>F F4 F2 | F>F F2- FFG=A | c>B B4 A2 | G3 G A2 G2 | F6 cB | A3 A BABc | d6 BA | %23
 G3 G AGAB | c6 AG | F3 F GFGA | B6 A2 | G3 F =E2 F2 | G6 z2 |] %29

